3be
albertroad.htmlalbertroad.htmlalbertroad.htmlalbertroad.htmlalbertroad.htmlalbertroad.htmlalbertroad.htmlalbertroad.htmlalbertroad.htmlFrom <I>Charlie Piggott and Gerry Harrington: The New Road</I>
albertroad.htmlalbertroad.html

T:Limerick Lassies, The
M:C|
L:1/8
Q:180
R:reel
D:Charlie Piggott and Gerry Harrington: The New Road
Z:Devin McCabe
K:D
d|:dBAF DFAF|GFGA B~E3|dBAF DFAF|1GBAG FDDd:|2GBAG FDD2||
!dcde fgfe|dcde f~B3|dcde ~f2bf|afea fddA|
!~d3e fgfe|dcde f~B3|bf~f2 afdB|ABde fddB|
!Adfd adfd|Adfd e~B3|Ad d/2d/2d adfd|ABde fddB|
!Adfd adfd|Adfd e~B3|fedB A~F3|ABde fddA|
!~B2Ad (3BdB Ad|BBAd BE~E2|(3Bcd Ad ~B3d|ABde fddA|
!B/2c/2d Ad BdAd|BBAd BE~E2|BAFB A~F3|ABde fddc||

%  ABC2Win Version 2.1 7/15/2001



albertroad.htmlalbertroad.htmlalbertroad.htmlalbertroad.htmlalbertroad.htmlalbertroad.html
0

